!!!COM: Palestrina, Giovanni Perluigi da
!!!OPR: Iste confessor
!!!OTL: Kyrie
**kern	**kern	**kern	**kern
*Ibass	*Itenor	*Icalto	*Icant
!Bassus	!Tenor	!Altus	!Cantus
*clefF4	*clefGv2	*clefG2	*clefG2
*k[]	*k[]	*k[]	*k[]
*G:mix	*G:mix	*G:mix	*G:mix
*M4/2	*M4/2	*M4/2	*M4/2
=1	=1	=1	=1
0r	0r	1d	1r
.	.	1e	1g
=2	=2	=2	=2
0r	0r	1d	1a
.	.	2B	1g
.	.	[2c	.
=3	=3	=3	=3
0r	0r	2c]	2e
.	.	2A	2f#
.	.	2B	2g
.	.	2c	[2a
=4	=4	=4	=4
1r	0r	2d	2a]
.	.	2B	1g
1D	.	2A	.
.	.	2d	2f#
=5	=5	=5	=5
1E	1G	4B	1g
.	.	4G	.
.	.	1g	.
1D	1A	.	1r
.	.	2f#	.
=6	=6	=6	=6
2BB	1G	4g	2r
.	.	4f	.
1C	.	4e	1g
.	.	4d	.
.	2E	1c	.
2AA	2F#	.	2a
=7	=7	=7	=7
2BB	2G	2r	2g
2C	1A	2c	2e
2D	.	2A	2f#
2BB	[2G	2B	2g
=8	=8	=8	=8
1AA	2G]	2.c	2a
.	2F#	.	1cc
.	.	4d	.
1GG	2.G	2e	.
.	.	2d	[2b
.	4A	.	.
=9	=9	=9	=9
1G	4B	1d	4b]
.	4c	.	4a
.	2.d	.	4g
.	.	.	4f
1A	.	1r	2e
.	4c	.	.
.	[2c	.	2f#
=10	=10	=10	=10
1G	2c]	1d	1g
.	4B	.	.
.	4A	.	.
1E	1B	1e	2r
.	.	.	2g
=11	=11	=11	=11
2F#	1r	2d	2a
2G	.	1B	1g
1E	1G	.	.
.	.	2c#	2e
=12	=12	=12	=12
2D	2A	2d	2f#
2C	2c	1e	2.g
2E	2B	.	.
.	.	.	4e
2F#	2A	[2d	[2a
=13	=13	=13	=13
2G	2B	2d]	4a]
.	.	.	4g
2E	4A	2c#	1g
.	4G	.	.
1D	1A	1d	.
.	.	.	2f#
=14	=14	=14	=14
0GG	0G	0d	0g
=15	=15	=15	=15
1.D	1r	0r	0r
.	[1A	.	.
2C	.	.	.
=16	=16	=16	=16
2D	2A]	0r	0r
2E	2G	.	.
1F	2.A	.	.
.	4B	.	.
=17	=17	=17	=17
2C	1c	1r	0r
1c	.	.	.
.	1G	[1d	.
2B	.	.	.
=18	=18	=18	=18
2.A	1r	2d]	1.a
.	.	2c	.
4G	.	.	.
2F	2r	2d	.
2E	[2c	2e	2g
=19	=19	=19	=19
1D	2c]	1.f	2a
.	2B	.	2b
[1C	2A	.	1cc
.	2G	4e	.
.	.	4d	.
=20	=20	=20	=20
1C]	1c	1e	2g
.	.	.	1cc
2r	1G	2d	.
[2E	.	[2g	4b
.	.	.	4a
=21	=21	=21	=21
2E]	0r	2g]	4b
.	.	.	4cc
2D	.	2f	1dd
2E	.	1e	.
2F#	.	.	[2cc
=22	=22	=22	=22
1G	1r	2d	4cc]
.	.	.	4b
.	.	1g	2b
1D	2r	.	1a
.	[2A	2f	.
=23	=23	=23	=23
0r	2A]	2.e	2r
.	2G	.	1e
.	.	4d	.
.	2A	2c	.
.	2B	2B	2d
=24	=24	=24	=24
0r	1c	1A	2e
.	.	.	2f#
.	2G	2.E	1g
.	[2c	.	.
.	.	4F#	.
=25	=25	=25	=25
1r	2c]	1G	2d
.	2B	.	1g
[1D	2.A	2.d	.
.	.	.	4f
.	4G	4c	4e
=26	=26	=26	=26
2D]	4A	2d	4f
.	4B	.	4g
2C	2c	2e	1a
2D	1B	2f	.
2E	.	2e	2g#
=27	=27	=27	=27
1F	1A	2.c	1a
.	.	4d	.
1C	1c	4e	1g
.	.	4f	.
.	.	[2e	.
=28	=28	=28	=28
2.G	2.B	4e]	0g
.	.	4d	.
.	.	1d	.
4F	4A	.	.
1E	1G	.	.
.	.	2c#	.
=29	=29	=29	=29
0D	0A	0d	0f#
=30	=30	=30	=30
1r	1c	0r	0r
1F	2A	.	.
.	2c	.	.
=31	=31	=31	=31
2D	2B	0r	0r
2F	2A	.	.
1E	4G	.	.
.	4A	.	.
.	4B	.	.
.	4c	.	.
=32	=32	=32	=32
0D	4d	0r	1f
.	4c	.	.
.	4d	.	.
.	4e	.	.
.	4f	.	2e
.	4e	.	.
.	[2d	.	2f
=33	=33	=33	=33
1A	2d]	1r	1e
.	2c#	.	.
[1D	2d	1f	2.d
.	2B-	.	.
.	.	.	4e
=34	=34	=34	=34
1D]	1A	2d	4f
.	.	.	4g
.	.	2f	2a
1r	1c	2.e	2g
.	.	.	[2cc
.	.	8d	.
.	.	8e	.
=35	=35	=35	=35
0r	2A	2f	4cc]
.	.	.	4b
.	2c	2.e	2a
.	1B-	.	4g
.	.	4d	4f
.	.	[2d	4e
.	.	.	4d
=36	=36	=36	=36
1r	1A	2d]	1e
.	.	2c#	.
2r	2.D	2d	4d
.	.	.	4e
2F	.	[2d	4f
.	4E	.	4g
=37	=37	=37	=37
2D	4F	2d]	1a
.	4G	.	.
2F	2.A	2.c	.
1E	.	.	1r
.	4G	4B	.
.	2G	2e	.
=38	=38	=38	=38
1D	2A	1f	1r
.	2B	.	.
1C	[1c	1e	2r
.	.	.	2cc
=39	=39	=39	=39
1F	1c]	2r	2a
.	.	2f	2cc
2G	1r	2d	2b
2D	.	2f	2a
=40	=40	=40	=40
2E	0r	2e	2g
1F	.	2d	1a
.	.	4c	.
.	.	4d	.
4E	.	4e	4g
4D	.	4f	4f
=41	=41	=41	=41
1C	1c	2g	4e
.	.	.	4f
.	.	2e	4g
.	.	.	4e
2D	2A	2d	4f
.	.	.	4g
2AA	2c	[2e	[2a
=42	=42	=42	=42
2E	1B	2e]	4a]
.	.	.	4g
2G	.	2d	1g
1D	1A	1d	.
.	.	.	2f#
=43	=43	=43	=43
0GG	0G	0B	0g
==	==	==	==
*-	*-	*-	*-
!!!CDT: 1525/^1526/-1594/2/2
!!!OCY: Italia
!!!AGN: Mass (Paraphrase)
!!!AST: renaissance, vocal
!!!ASW: Hymn
!!!PWK: Masses, Book 5
!!!RNB: Cadence finals: D
!!!YOR: Le Opere Complete, v. 15, p. 72
!!!YOO: Rome, Italy: Fratelli Scalera
!!!END: 1992//
!!!EED: John Miller
!!!YEC: Copyright 2000, John Miller
!!!YEN: United States of America
!!!YEM: Rights to all derivative electronic formats reserved.
!!!YEM: Refer to licensing agreement for further details.
!!!YEM: This file must be accompanied by the licensing agreement.
!!!YEM: A copy of the licensing agreement may be found at http://www.music-cog.ohio-state.edu/HumdrumDatabases/Palestrina/license.txt
!!!EMD: converted to Humdrum by Bret Aarden
